X: 1
T: BONNY GREEN GARTERS
S: MDT
O: Bampton
Q: 3/8=100
B: Morris Ring
Z: 2005 John Chambers <jc@trillian.mit.edu>
M: 6/8
L: 1/8
K: D
A | d>cd AFA | B>AB ABc | d>cd efg | faf ede |
    d>cd AFA B>AB ABc | d>cd efg | f3 e3 ||["Last time"f3 d3 ||
P:Alt bar 4
  | f3 e3 |
